X:64
T:Bombobwmbwr
M:3/4
L:1/8
Q:100
C:John Tose
R:Hanter dro
K:G
EE/2F/2 GE AG | EE/2F/2 GE D/2E/2F | EE/2F/2 GE AG | GB A/2
G/2F/2E/2 DF :||: EA AG EA | EB BA F2 | EA AG EA |1GB A/2G/2F/2E/2 DF
:||2GB A/2G/2F/2E/2 D2 ||
